assets/svg/1F6AD.svg

<svg xmlns="http://www.w3.org/2000/svg" viewBox="0 0 64 64" enable-background="new 0 0 64 64"><path fill="#1b75bb" d="M63.698,56.807c0,3.794-3.07,6.869-6.863,6.869H6.887c-3.788,0-6.861-3.075-6.861-6.869V6.865    C0.026,3.074,3.099,0,6.887,0h49.948c3.793,0,6.863,3.074,6.863,6.865V56.807z"/><path fill="#0867a3" d="m.026 48.48v8.323c0 3.794 3.073 6.869 6.861 6.869h49.948c3.793 0 6.863-3.075 6.863-6.869v-49.941c-10.872 39.494-49.958 41.997-63.67 41.618"/><g fill="#fff"><path d="m60.33 33.04c0 1.968-1.365 3.565-3.051 3.565h-48.902c-1.686 0-3.053-1.598-3.053-3.565l0 0c0-1.969 1.367-3.567 3.053-3.567h48.902c1.686 0 3.051 1.598 3.051 3.567l0 0"/><path d="m50.27 11.394c0 0 1.275 1.77-1.832 5.787-3.11 4.02 3.01 9.133 3.01 9.133s-3.886-5.695 1.056-9.37c4.942-3.672-2.23-5.55-2.23-5.55"/><path d="m56.03 9.573c0 0 1.234 2.298-2.054 7.672-3.287 5.38 2.729 11.958 2.729 11.958s-3.737-7.404 1.391-12.376c5.13-4.967-2.066-7.254-2.066-7.254"/></g><g fill="#1b75bb"><path d="m55.44 29.475h-1.689c1.686 0 3.053 1.598 3.053 3.567 0 1.968-1.367 3.565-3.053 3.565h1.689c1.687 0 3.052-1.598 3.052-3.565 0-1.969-1.365-3.567-3.052-3.567"/><path d="m51.28 29.475h-1.69c1.685 0 3.052 1.598 3.052 3.567 0 1.968-1.367 3.565-3.052 3.565h1.69c1.682 0 3.051-1.598 3.051-3.565 0-1.969-1.369-3.567-3.051-3.567"/><path d="m47.726 29.475h-1.687c1.683 0 3.052 1.598 3.052 3.567 0 1.968-1.369 3.565-3.052 3.565h1.687c1.686 0 3.055-1.598 3.055-3.565-.0001-1.969-1.37-3.567-3.055-3.567"/></g><path fill="#fff" d="m60.52 60.895c-2.208 2.21-5.427 2.573-7.189.813l-51.13-51.14c-1.766-1.764-1.396-4.984.808-7.194l0 0c2.21-2.208 5.429-2.57 7.193-.806l51.13 51.13c1.762 1.767 1.397 4.983-.812 7.191l0 0"/><path fill="#1b75bb" d="m56.19 63.914c-1.416 0-2.704-.509-3.63-1.438l-51.13-51.13c-2.185-2.185-1.823-6.104.806-8.736 2.539-2.535 6.618-2.922 8.732-.806l51.14 51.13c2.183 2.183 1.818 6.1-.812 8.73-1.429 1.429-3.286 2.248-5.102 2.248m-48.852-61.37c-1.244 0-2.539.585-3.559 1.607-1.782 1.783-2.142 4.317-.808 5.655l51.13 51.13c.658.659 1.498.796 2.088.796 1.242 0 2.539-.587 3.56-1.609 1.78-1.778 2.144-4.312.81-5.648l-51.13-51.13c-.659-.663-1.5-.8-2.089-.8"/></svg>

<?xml version="1.0" encoding="UTF-8" standalone="no"?>
<!-- Generator: Adobe Illustrator 16.0.0, SVG Export Plug-In . SVG Version: 6.00 Build 0)  -->

<svg
   xmlns:dc="http://purl.org/dc/elements/1.1/"
   xmlns:cc="http://creativecommons.org/ns#"
   xmlns:rdf="http://www.w3.org/1999/02/22-rdf-syntax-ns#"
   xmlns:svg="http://www.w3.org/2000/svg"
   xmlns="http://www.w3.org/2000/svg"
   xmlns:sodipodi="http://sodipodi.sourceforge.net/DTD/sodipodi-0.dtd"
   xmlns:inkscape="http://www.inkscape.org/namespaces/inkscape"
   version="1.1"
   id="Layer_1"
   x="0px"
   y="0px"
   width="64px"
   height="64px"
   viewBox="0 0 64 64"
   enable-background="new 0 0 64 64"
   xml:space="preserve"
   inkscape:version="0.48.5 r10040"
   sodipodi:docname="1F6AD.svg"
   inkscape:export-filename="D:\TESTINGEMOJI\SVGTEST\1F6AD.png"
   inkscape:export-xdpi="90"
   inkscape:export-ydpi="90"><metadata
   id="metadata6385"><rdf:RDF><cc:Work
       rdf:about=""><dc:format>image/svg+xml</dc:format><dc:type
         rdf:resource="http://purl.org/dc/dcmitype/StillImage" /><dc:title></dc:title></cc:Work></rdf:RDF></metadata><defs
   id="defs6383" /><sodipodi:namedview
   pagecolor="#ffffff"
   bordercolor="#666666"
   borderopacity="1"
   objecttolerance="10"
   gridtolerance="10"
   guidetolerance="10"
   inkscape:pageopacity="0"
   inkscape:pageshadow="2"
   inkscape:window-width="640"
   inkscape:window-height="480"
   id="namedview6381"
   showgrid="false"
   inkscape:zoom="3.6875"
   inkscape:cx="32"
   inkscape:cy="32"
   inkscape:window-x="395"
   inkscape:window-y="215"
   inkscape:window-maximized="0"
   inkscape:current-layer="Layer_1" />
<g
   id="g6355">
	<g
   id="g6357">
		<path
   fill="#1B75BB"
   d="M63.698,56.807c0,3.794-3.07,6.869-6.863,6.869H6.887c-3.788,0-6.861-3.075-6.861-6.869V6.865    C0.026,3.074,3.099,0,6.887,0h49.948c3.793,0,6.863,3.074,6.863,6.865V56.807z"
   id="path6359" />
		<path
   fill="#0867A3"
   d="M0.026,48.483v8.323c0,3.794,3.073,6.869,6.861,6.869h49.948c3.793,0,6.863-3.075,6.863-6.869V6.865    C52.826,46.359,13.74,48.862,0.026,48.483z"
   id="path6361" />
	</g>
	<g
   id="g6363">
		<path
   fill="#FFFFFF"
   d="M60.332,33.042c0,1.968-1.365,3.565-3.051,3.565H8.379c-1.686,0-3.053-1.598-3.053-3.565l0,0    c0-1.969,1.367-3.567,3.053-3.567h48.902C58.967,29.475,60.332,31.073,60.332,33.042L60.332,33.042z"
   id="path6365" />
		<path
   fill="#FFFFFF"
   d="M50.275,11.394c0,0,1.275,1.77-1.832,5.787c-3.11,4.023,3.006,9.133,3.006,9.133s-3.886-5.695,1.056-9.37    C57.447,13.272,50.275,11.394,50.275,11.394z"
   id="path6367" />
		<path
   fill="#FFFFFF"
   d="M56.027,9.573c0,0,1.234,2.298-2.054,7.672c-3.287,5.38,2.729,11.958,2.729,11.958    s-3.737-7.404,1.391-12.376C63.223,11.86,56.027,9.573,56.027,9.573z"
   id="path6369" />
	</g>
	<path
   fill="#1B75BB"
   d="M55.438,29.475h-1.689c1.686,0,3.053,1.598,3.053,3.567c0,1.968-1.367,3.565-3.053,3.565h1.689   c1.687,0,3.052-1.598,3.052-3.565C58.49,31.073,57.125,29.475,55.438,29.475z"
   id="path6371" />
	<path
   fill="#1B75BB"
   d="M51.277,29.475h-1.69c1.685,0,3.052,1.598,3.052,3.567c0,1.968-1.367,3.565-3.052,3.565h1.69   c1.682,0,3.051-1.598,3.051-3.565C54.328,31.073,52.959,29.475,51.277,29.475z"
   id="path6373" />
	<path
   fill="#1B75BB"
   d="M47.726,29.475h-1.687c1.683,0,3.052,1.598,3.052,3.567c0,1.968-1.369,3.565-3.052,3.565h1.687   c1.686,0,3.055-1.598,3.055-3.565C50.78,31.073,49.411,29.475,47.726,29.475z"
   id="path6375" />
	<path
   fill="#FFFFFF"
   d="M60.52,60.895c-2.208,2.21-5.427,2.573-7.189,0.813L2.197,10.573C0.431,8.809,0.801,5.589,3.005,3.379l0,0   c2.21-2.208,5.429-2.57,7.193-0.806l51.134,51.131C63.094,55.471,62.729,58.687,60.52,60.895L60.52,60.895z"
   id="path6377" />
	<path
   fill="#1B75BB"
   d="M56.189,63.914c-1.416,0-2.704-0.509-3.63-1.438L1.429,11.345c-2.185-2.185-1.823-6.104,0.806-8.736   c2.539-2.535,6.618-2.922,8.732-0.806l51.136,51.133c2.183,2.183,1.818,6.1-0.812,8.73C59.862,63.095,58.005,63.914,56.189,63.914z    M7.337,2.544c-1.244,0-2.539,0.585-3.559,1.607C1.996,5.934,1.636,8.468,2.97,9.806l51.132,51.131   c0.658,0.659,1.498,0.796,2.088,0.796c1.242,0,2.539-0.587,3.56-1.609c1.78-1.778,2.144-4.312,0.81-5.648L9.426,3.344   C8.767,2.681,7.926,2.544,7.337,2.544z"
   id="path6379" />
</g>
</svg>
